svg/furkot/mapbox-maki/baseball.svg

<svg viewBox="0 0 512 512" xmlns="http://www.w3.org/2000/svg"><path d="m306.952 119.466c0 28.278-22.925 51.201-51.201 51.201s-51.2-22.923-51.2-51.201c0-28.277 22.924-51.199 51.2-51.199s51.201 22.923 51.201 51.199zm-102.401-109.908c0-5.278-4.281-9.558-9.557-9.558-3.342.895-6.321 2.803-8.533 5.461l-84.31 151.212c-.201 1.47-.201 2.965 0 4.436 0 5.277 4.28 9.558 9.557 9.558 3.465-.83 6.574-2.741 8.876-5.461l83.967-151.212c.205-1.471.205-2.966 0-4.436zm201.386 475.136-98.985-266.582c-1.619-7.759-8.459-13.316-16.384-13.311h-170.668c-9.424 0-17.067 7.642-17.067 17.066 0 9.423 7.643 17.067 17.067 17.067h84.651l49.493 85.674-145.75 157.355c-3.893 3.181-6.15 7.942-6.143 12.971 0 9.423 7.643 17.066 17.066 17.066 4.179-.02 8.196-1.604 11.265-4.437l151.893-141.653 94.209 136.534c3.054 5.433 8.785 8.82 15.017 8.874 9.544.007 17.381-7.533 17.75-17.067-.143-3.458-1.33-6.793-3.414-9.557z"/></svg>

<svg viewBox="0 0 512 512" xmlns="http://www.w3.org/2000/svg"><path d="M 306.952 119.466 C 306.952 147.744 284.027 170.667 255.751 170.667 C 227.475 170.667 204.551 147.744 204.551 119.466 C 204.551 91.189 227.475 68.267 255.751 68.267 C 284.027 68.267 306.952 91.19 306.952 119.466 Z M 204.551 9.558 C 204.551 4.28 200.27 0 194.994 0 C 194.994 0 194.994 0 194.994 0 C 191.652 0.895 188.673 2.803 186.461 5.461 L 102.151 156.673 C 101.95 158.143 101.95 159.638 102.151 161.109 C 102.151 166.386 106.431 170.667 111.708 170.667 C 115.173 169.837 118.282 167.926 120.584 165.206 L 204.551 13.994 C 204.756 12.523 204.756 11.028 204.551 9.558 Z M 405.937 484.694 L 405.937 484.694 L 306.952 218.112 L 306.952 218.112 C 305.333 210.353 298.493 204.796 290.568 204.801 L 119.9 204.801 C 110.476 204.801 102.833 212.443 102.833 221.867 C 102.833 231.29 110.476 238.934 119.9 238.934 L 204.551 238.934 L 254.044 324.608 L 108.294 481.963 L 108.294 481.963 C 104.401 485.144 102.144 489.905 102.151 494.934 C 102.151 504.357 109.794 512 119.217 512 C 123.396 511.98 127.413 510.396 130.482 507.563 L 130.482 507.563 L 282.375 365.91 L 376.584 502.444 L 376.584 502.444 C 379.638 507.877 385.369 511.264 391.601 511.318 C 401.145 511.325 408.982 503.785 409.351 494.251 C 409.208 490.793 408.021 487.458 405.937 484.694 Z"/></svg>
